X: 42634
T: Whiskey Before Breakfast
R: reel
M: 4/4
K: Dmajor
FDFG A2 A2|ABAG FEDF|G2 BG F2AF|EDEF GFEF|
EDFG A2 A2|ABAG FEDF|G2 BG F2 AF|EDEF D4:|

